pix_core/f/calc.svg

<svg fill="none" preserveAspectRatio="xMinYMid meet" viewBox="0 0 24 24" xmlns="http://www.w3.org/2000/svg"><g clip-rule="evenodd" fill="#fff" fill-rule="evenodd"><path d="m7.5 12.5c0-1.1046.89543-2 2-2h5c1.1046 0 2 .8954 2 2v4c0 1.1046-.8954 2-2 2h-5c-1.10457 0-2-.8954-2-2zm3 5h4c.5523 0 1-.4477 1-1h-5zm-1-1v1c-.55228 0-1-.4477-1-1zm1-1h5v-1h-5zm-1-1v1h-1v-1zm1-1h5v-1c0-.5523-.4477-1-1-1h-4zm-1-2c-.55228 0-1 .4477-1 1v1h1z"/><path d="m19.5 19c0 1.3807-1.1193 2.5-2.5 2.5h-10c-1.38071 0-2.5-1.1193-2.5-2.5v-14c0-1.38071 1.11929-2.5 2.5-2.5h6.1716c.663 0 1.2989.26339 1.7677.73223l3.8285 3.82843c.4688.46884.7322 1.10473.7322 1.76777zm-14-14c0-.82843.67157-1.5 1.5-1.5h6c.2761 0 .5.22386.5.5v3c0 .82843.6716 1.5 1.5 1.5h3c.2761 0 .5.22386.5.5v10c0 .8284-.6716 1.5-1.5 1.5h-10c-.82843 0-1.5-.6716-1.5-1.5zm9-.79289 3.2929 3.29289h-2.7929c-.2761 0-.5-.22386-.5-.5z"/></g></svg>

<svg viewBox="0 0 24 24" fill="none" xmlns="http://www.w3.org/2000/svg" preserveAspectRatio="xMinYMid meet">
<path fill-rule="evenodd" clip-rule="evenodd" d="M7.5 12.5C7.5 11.3954 8.39543 10.5 9.5 10.5H14.5C15.6046 10.5 16.5 11.3954 16.5 12.5V16.5C16.5 17.6046 15.6046 18.5 14.5 18.5H9.5C8.39543 18.5 7.5 17.6046 7.5 16.5V12.5ZM10.5 17.5H14.5C15.0523 17.5 15.5 17.0523 15.5 16.5H10.5V17.5ZM9.5 16.5L9.5 17.5C8.94772 17.5 8.5 17.0523 8.5 16.5H9.5ZM10.5 15.5L15.5 15.5V14.5L10.5 14.5V15.5ZM9.5 14.5V15.5H8.5V14.5H9.5ZM10.5 13.5L15.5 13.5V12.5C15.5 11.9477 15.0523 11.5 14.5 11.5H10.5V13.5ZM9.5 11.5C8.94772 11.5 8.5 11.9477 8.5 12.5V13.5H9.5V11.5Z" fill="#fff"/>
<path fill-rule="evenodd" clip-rule="evenodd" d="M19.5 19C19.5 20.3807 18.3807 21.5 17 21.5H7C5.61929 21.5 4.5 20.3807 4.5 19V5C4.5 3.61929 5.61929 2.5 7 2.5H13.1716C13.8346 2.5 14.4705 2.76339 14.9393 3.23223L18.7678 7.06066C19.2366 7.5295 19.5 8.16539 19.5 8.82843V19ZM5.5 5C5.5 4.17157 6.17157 3.5 7 3.5H13C13.2761 3.5 13.5 3.72386 13.5 4V7C13.5 7.82843 14.1716 8.5 15 8.5H18C18.2761 8.5 18.5 8.72386 18.5 9V19C18.5 19.8284 17.8284 20.5 17 20.5H7C6.17157 20.5 5.5 19.8284 5.5 19V5ZM14.5 4.20711L17.7929 7.5H15C14.7239 7.5 14.5 7.27614 14.5 7V4.20711Z" fill="#fff"/>
</svg>
